X: 20481
T: John Kelly's
R: slide
M: 12/8
K: Dmajor
|:f2 A ABA BAB d2 f|e2 d BAB g3 gfe|
f2 A ABA BAB d2 f|1 e2 d BAB d3 d2 e:|2 e2 d BAB d3 def||
|:g3 gfe f3 fed|e3 edB d2 B ABd|
g2 g gfe f2 f fed|1 e2 e efa b3 a2 f:|2 e2 e efa b3 a2 g||

